src/assets/img/icons/mask/icon-areas-software.svg

<svg width="77" height="57" viewBox="0 0 77 57" fill="none" xmlns="http://www.w3.org/2000/svg">
<path d="M48.4355 22.3043V19.8261H45.9516V22.3043H42.2258V34.6957H45.9516V37.1739H48.4355V34.6957C50.4894 34.6957 52.1613 33.0275 52.1613 30.9783C52.1613 30.0265 51.8011 29.1577 51.2098 28.5C51.8011 27.8423 52.1613 26.9735 52.1613 26.0217C52.1613 23.9725 50.4894 22.3043 48.4355 22.3043ZM48.4355 32.2174H44.7097V29.7391H48.4355C49.1207 29.7391 49.6774 30.2946 49.6774 30.9783C49.6774 31.662 49.1207 32.2174 48.4355 32.2174ZM48.4355 27.2609H44.7097V24.7826H48.4355C49.1207 24.7826 49.6774 25.338 49.6774 26.0217C49.6774 26.7054 49.1207 27.2609 48.4355 27.2609ZM58.371 8.67391H60.8548V11.1522H58.371V8.67391ZM63.3387 8.67391H65.8226V11.1522H63.3387V8.67391ZM58.371 45.8478H60.8548V48.3261H58.371V45.8478ZM63.3387 45.8478H65.8226V48.3261H63.3387V45.8478ZM47.1936 14.8696C44.6102 14.8696 42.2022 15.6017 40.1404 16.8487C37.8069 10.316 34.0738 5.38429 31.673 2.67308C37.7347 3.40761 43.4295 6.25858 47.6344 10.7583L48.0031 11.1522H55.8871V8.67391H49.0765C43.7121 3.1547 36.2696 0 28.5645 0C12.8129 0 0 12.784 0 28.5C0 44.216 12.8129 57 28.5645 57C36.2696 57 43.7121 53.8453 49.0765 48.3261H55.8871V45.8478H48.0031L47.6344 46.2405C43.4277 50.7414 37.7335 53.5924 31.6718 54.3257C34.0726 51.6145 37.8057 46.6828 40.1391 40.1501C42.2022 41.3983 44.6102 42.1304 47.1936 42.1304C52.345 42.1304 57.0344 39.2383 59.3582 34.6957H72.0323V32.2174H57.7597L57.4347 32.961C55.6536 37.0251 51.6337 39.6522 47.1936 39.6522C41.03 39.6522 36.0161 34.6497 36.0161 28.5C36.0161 22.3503 41.03 17.3478 47.1936 17.3478C51.6337 17.3478 55.6536 19.9749 57.4347 24.039L57.7597 24.7826H72.0323V22.3043H59.3582C57.0344 17.7617 52.345 14.8696 47.1936 14.8696ZM28.5682 2.97984C30.4086 4.87 34.8821 9.94753 37.5758 17.0604C34.8597 18.0539 31.8482 18.587 28.5645 18.587C24.9727 18.587 22.0086 17.9898 19.5665 17.1064C22.2754 9.96024 26.7416 4.86092 28.5682 2.97984ZM17.2403 16.0978C13.1731 14.0467 11.0282 11.301 10.2102 10.0371C14.2277 6.06073 19.5332 3.39127 25.4372 2.68398C23.1189 5.29837 19.5678 9.95782 17.2403 16.0978ZM8.48979 11.9103C9.68807 13.5972 12.1707 16.3961 16.4284 18.4666C15.4969 21.5202 14.9032 24.883 14.9032 28.5C14.9032 32.117 15.4969 35.4798 16.4284 38.5347C12.1707 40.6039 9.68807 43.404 8.48979 45.0909C4.74155 40.5827 2.48387 34.7997 2.48387 28.5C2.48387 22.2003 4.74155 16.4173 8.48979 11.9103ZM37.5746 39.9396C34.8846 47.0349 30.4074 52.1239 28.5669 54.0171C26.7416 52.1379 22.2827 47.0458 19.5726 39.9111C22.0183 39.0175 24.9842 38.413 28.5645 38.413C31.8482 38.413 34.8597 38.9461 37.5746 39.9396ZM25.4385 54.316C19.5368 53.6087 14.2325 50.9405 10.2163 46.9678C11.0373 45.7226 13.2004 42.9841 17.2507 40.9294C19.5781 47.0561 23.1226 51.7053 25.4385 54.316ZM36.5255 36.9918C34.0538 36.3039 31.3959 35.9348 28.5645 35.9348C24.6859 35.9348 21.4482 36.5719 18.7691 37.5345C17.9335 34.7549 17.3871 31.734 17.3871 28.5C17.3871 25.266 17.9335 22.2451 18.7691 19.4655C21.4482 20.4269 24.6859 21.0652 28.5645 21.0652C31.3959 21.0652 34.0526 20.6961 36.5255 20.0082C34.6572 22.34 33.5323 25.2896 33.5323 28.5C33.5323 31.7104 34.6572 34.66 36.5255 36.9918ZM74.5161 22.3043H77V24.7826H74.5161V22.3043ZM74.5161 32.2174H77V34.6957H74.5161V32.2174ZM58.371 29.7391V27.2609H65.8226V29.7391H58.371ZM68.3064 29.7391V27.2609H70.7903V29.7391H68.3064ZM59.6129 37.1739H72.0323V39.6522H59.6129V37.1739ZM74.5161 37.1739H77V39.6522H74.5161V37.1739ZM59.6129 17.3478H72.0323V19.8261H59.6129V17.3478ZM74.5161 17.3478H77V19.8261H74.5161V17.3478Z" fill="url(#paint0_linear)"/>
<defs>
<linearGradient id="paint0_linear" x1="38.5" y1="57" x2="38.5" y2="0" gradientUnits="userSpaceOnUse">
<stop stop-color="#7F85A8"/>
<stop offset="1" stop-color="#6B6B8B"/>
</linearGradient>
</defs>
</svg>

<svg xmlns="http://www.w3.org/2000/svg" width="77" height="57" fill="none"><path fill="url(#paint0_linear)" d="M48.44 22.3v-2.47h-2.49v2.47h-3.72v12.4h3.72v2.47h2.49V34.7a3.73 3.73 0 002.77-6.2 3.73 3.73 0 00-2.77-6.2zm0 9.92H44.7v-2.48h3.73a1.24 1.24 0 110 2.48zm0-4.96H44.7v-2.48h3.73a1.24 1.24 0 110 2.48zm9.93-18.59h2.48v2.48h-2.48V8.67zm4.97 0h2.48v2.48h-2.48V8.67zm-4.97 37.18h2.48v2.48h-2.48v-2.48zm4.97 0h2.48v2.48h-2.48v-2.48zM47.19 14.87c-2.58 0-4.99.73-7.05 1.98a44.46 44.46 0 00-8.47-14.18 26.2 26.2 0 0115.96 8.09l.37.4h7.89V8.66h-6.81A28.56 28.56 0 000 28.5a28.56 28.56 0 0049.08 19.83h6.8v-2.48H48l-.37.39a26.2 26.2 0 01-15.96 8.09 44.46 44.46 0 008.47-14.18 13.67 13.67 0 0019.22-5.45h12.67v-2.48H57.76l-.33.74a11.18 11.18 0 01-21.41-4.46 11.18 11.18 0 0121.41-4.46l.33.74h14.27V22.3H59.36a13.67 13.67 0 00-12.17-7.43zM28.57 2.98a42.76 42.76 0 019 14.08 26.1 26.1 0 01-9 1.53c-3.6 0-6.56-.6-9-1.48a43.11 43.11 0 019-14.13zM17.24 16.1a18.06 18.06 0 01-7.03-6.06 26.02 26.02 0 0115.23-7.36 44.43 44.43 0 00-8.2 13.42zM8.49 11.9a20.95 20.95 0 007.94 6.56A34.3 34.3 0 0014.9 28.5c0 3.62.6 6.98 1.53 10.03a20.94 20.94 0 00-7.94 6.56 25.87 25.87 0 010-33.18zm29.08 28.03a42.91 42.91 0 01-9 14.08 43.12 43.12 0 01-9-14.1c2.45-.9 5.41-1.5 9-1.5 3.28 0 6.29.53 9 1.52zM25.44 54.32c-5.9-.71-11.2-3.38-15.22-7.35a18.43 18.43 0 017.03-6.04 44.41 44.41 0 008.19 13.39zm11.09-17.33a29.6 29.6 0 00-7.97-1.06c-3.87 0-7.11.64-9.8 1.6a31.27 31.27 0 01-1.37-9.03c0-3.23.54-6.25 1.38-9.03a28.8 28.8 0 009.8 1.6c2.83 0 5.48-.37 7.96-1.06a13.54 13.54 0 000 16.98zM74.52 22.3H77v2.48h-2.48V22.3zm0 9.92H77v2.48h-2.48v-2.48zm-16.15-2.48v-2.48h7.45v2.48h-7.45zm9.94 0v-2.48h2.48v2.48h-2.48zm-8.7 7.43h12.42v2.48H59.61v-2.48zm14.9 0H77v2.48h-2.48v-2.48zm-14.9-19.82h12.42v2.48H59.61v-2.48zm14.9 0H77v2.48h-2.48v-2.48z"/><defs><linearGradient id="paint0_linear" x1="38.5" x2="38.5" y1="57" y2="0" gradientUnits="userSpaceOnUse"><stop stop-color="#7F85A8"/><stop offset="1" stop-color="#6B6B8B"/></linearGradient></defs></svg>
